icon-themes/breeze_svg/cmd/32/showdatanavigator.svg

<svg viewBox="0 0 32 32" xmlns="http://www.w3.org/2000/svg"><path d="m18.513672 3.8769531-6 23.9999999.970703.244141 6-24.0000002zm-8.513672 5.1230469-6 7 6 7s.626653-.630477.626953-.617188l-5.4687499-6.382812 5.5039059-6.421875c.0121-.0178-.662109-.578125-.662109-.578125zm12 0s-.674209.560325-.662109.578125l5.503906 6.421875-5.46875 6.382812c.0003-.013289.626953.617188.626953.617188l6-7z" fill="#4d4d4d"/></svg>

<svg xmlns="http://www.w3.org/2000/svg" viewBox="0 0 32 32">
 <path 
     style="fill:#4d4d4d" 
     d="M 18.513672 3.8769531 L 12.513672 27.876953 L 13.484375 28.121094 L 19.484375 4.1210938 L 18.513672 3.8769531 z M 10 9 L 4 16 L 10 23 C 10 23 10.626653 22.369523 10.626953 22.382812 L 5.1582031 16 L 10.662109 9.578125 C 10.674209 9.560325 10 9 10 9 z M 22 9 C 22 9 21.325791 9.560325 21.337891 9.578125 L 26.841797 16 L 21.373047 22.382812 C 21.373347 22.369523 22 23 22 23 L 28 16 L 22 9 z "
     />
</svg>
